X:1
T:Title
%%score 1 { 2 | ( 3 4 ) }
L:1/8
M:4/4
K:D
V:1 treble nm="Choir Aahs"
V:2 treble nm="Grand Piano"
V:3 bass 
V:4 bass 
V:1
 z4 z[Q:1/4=100] [FA] [FB]>[DF] | [EG]4- [EG][EG] [CA]>[CE] | [DF]4- [DF][DF] [DF]>[DB] | %3
 [Fd]4- [Fd][DB] [Ec]>[DB] | [CA]4- [CA][GA] [GB]>[GA] | [Fd]4- [Fd][DF] [Ac]>[GB] | %6
 [FA]4- [FA]D [B,G]>[DF] | [DB]4- [DB][Dd] [DF]>[CE] |[M:13/16] D/-D/-D/-D/-D/-D/-D/-D-<D z | %9
[M:1/4] z2 |[M:4/4] z8 | z8 | z8 | z8 | z8 | z8 | z8 |[M:5/8] z5 |] %18
V:2
 z8 | z C C>C .C2 z2 | z A, A,>A, .A,2 z2 | z D F>F .D2 z2 | z E C>E .G2 z2 | z D A>F .D2 z2 | %6
 z D A,>A, .D2 z2 | z D B,>B, DF D>G |[M:13/16] F[K:bass]A,B,>B,A,3/2 z |[M:1/4][K:treble] A2 | %10
[M:4/4] [Fd]>[Fd] [Fd]4 [FA]2 | B>B B4 [AB]2 | [^GB]>[GB] [Ge]4 [GB]2 | [Bd]>c c4 A2 | %14
 [Fd]>[Fd] [Fd]4 [FA]2 | [Ac]>B B2- Bd c>B | A4- AF [DF]>[CE] |[M:5/8] D-D- D3 |] %18
V:3
 z8 | z [A,,E,] [A,,E,]>[A,,E,] .[A,,E,]2 z2 | z [D,F,] [D,F,]>[D,F,] .[D,F,]2 z2 | %3
 z [B,,B,] [B,,B,]>[B,,F,] .[B,,B,]2 z2 | z A, [E,A,]>[C,A,] .[A,,A,]2 z2 | %5
 z [D,A,] [F,D]>A, .[D,A,]2 z2 | z [D,F,] [D,F,]>[D,F,] .[D,F,]2 z2 | %7
 z [G,,G,] [G,,G,]>[G,,G,] [G,,G,][B,,F,] [A,,A,]>[A,,A,] | %8
[M:13/16] .A,3/2 z/ z/ z/ z/ z/ z/ z/ z/ z |[M:1/4] [D,F,D]2 | %10
[M:4/4] [D,A,]>[D,A,] [D,A,]4 [D,D]2 | [G,DG]>[G,DG] [G,DG]4[K:bass] [F,^D]2 | %12
 [E,E]>[E,E] [E,B,]4 [E,E]2 | [A,E]>[A,EA] [A,EA]4 [A,CG]2 | [D,D]>[D,A,] [D,A,]4 [D,D]2 | %15
 [G,D]>[K:treble][G,DG] [G,DG]2- [G,DG][G,B,G] [G,CG]>[G,DG] | %16
 [A,DF]4- [A,DF][K:bass][A,D] [A,,A,]>[A,,G,] |[M:5/8] [D,F,]-[D,F,]- [D,F,]3 |] %18
V:4
 x8 | x8 | x8 | x8 | x8 | x8 | x8 | x8 |[M:13/16] D,-[D,-F,][D,-G,]>[D,-G,][D,F,]3/2 z | %9
[M:1/4] x2 |[M:4/4] x8 | x6[K:bass] x2 | x8 | x8 | x8 | x3/2[K:treble] x13/2 | x5[K:bass] x3 | %17
[M:5/8] x5 |] %18

